X:1
T:Title
%%score { ( 1 3 ) | 2 }
L:1/8
M:4/4
K:Ab
V:1 treble nm="Grand Piano"
V:3 treble 
V:2 bass 
V:1
 z4 z2[Q:1/4=100] [CE][CE] | [CA]2 [DA]2 [CA]2 [DG][CA] | B2 B2 B2 EE | BBBB BdcB | [Ec]6 cd | %5
 eeee c2 Bc | [Fd][Fd][Fd][Fd] F2 FF | EEEc cBAG |[M:3/4] [CA]6 |[M:1/4] c>d |[M:4/4] e2 e4 f>e | %11
 c2 c4 c>d | e3 e d2 c2 |[M:3/4] [GB]6 |[M:1/4] c>d |[M:4/4] e2 e4 c>e | [Fe]2 [Fd]4 [FA]>[=EB] | %17
 c3 A c2 B2 |[M:3/4] [CA]6 |] %19
V:2
 z4 z2 [A,,A,][A,,A,] | [A,,E,]2 [A,,F,]2 [A,,E,]2 [B,,E,][A,,E,] | %2
 [E,G,E]2 [F,A,=D]2 [G,B,_D]2 [E,G,D][E,G,D] | %3
 [E,G,E][E,G,E][E,G,E][E,G,E] [E,G,E][E,B,E][E,A,E][E,G,E] | [A,,A,]6[K:treble] [A,EA][A,DA] | %5
 [A,CA][A,CA][A,CA][A,CA] [A,EG]2 [A,EG][A,E_G] | [D,D][D,D][D,D][D,D] [D,A,D]2 [D,A,D][D,A,D] | %7
 [E,A,C][E,A,C][E,A,C][E,A,E] [E,G,E][E,G,D][E,A,C][E,B,D] |[M:3/4] [A,,A,]6 | %9
[M:1/4][K:treble] [A,EA]>[A,DA] |[M:4/4] [A,CA]2 [A,CA]4 [A,DA]>[A,CA] | %11
 [A,EA]2 [A,EA]4 [A,EA]>[B,EG] | [CEA]3 [CEA] [B,EG]2 [A,EA]2 | %13
[M:3/4][K:bass] E,2 G,B,[K:treble] E2 |[M:1/4] [CEA]>[B,EG] | %15
[M:4/4] [A,CA]2 [A,CA]4 [A,EA]>[A,C_G] | [D,D]2 [D,D]4 [D,D]>[D,D] | %17
 [E,A,E]3 [E,A,C] [E,A,E]2 [E,G,D]2 |[M:3/4] [A,,A,]6 |] %19
V:3
 x8 | x8 | x8 | x8 | x8 | x8 | x8 | x8 |[M:3/4] x6 |[M:1/4] x2 |[M:4/4] x8 | x8 | x8 | %13
[M:3/4] E4 z D |[M:1/4] x2 |[M:4/4] x8 | x8 | x8 |[M:3/4] x6 |] %19

